X: 09109
T: The SUPERINTENDENT
C: Bob McQuillen 29 Jan 93
B: Bob's Note Book 9 p.109
R: jig
Z: 2017 John Chambers <jc:trillian.mit.edu>
L: 1/8
M: 6/8
K: G
E |\
DGG G2G | EAG FED | GBd d2c | BGB AGE |
DGG BGG | EAG FED | GBd cAF | AGG G2 :|
|: A |\
BGB d2d | edB d2d | BGB dBd | gdB A2B |
GEG DGB | AGA BGB | dge dBA | BGG G2 :|
%%begintext align
%% The official name for the Conval
%% (Contoocook Valley Regional) School district where I taught for so many
%% years is Supervisory Union #1, and our Superintendent of Schools
%% is Mr. Larry Bramblett. His job is a difficult one and keeps him terribly
%% busy, so even if he were inclined to go to a dance some time, he probably
%% wouldn't have time for it. But he's been awfully good to me, and I
%% just wanted him to have a tune in this book to show my appreciation.
%% Sincere best wishes always to you, Larry, from Mac.
%%endtext

%%sep 1 1 500

%%sep 1 1 500

